icons/contacts-book-fill.svg

<svg xmlns="http://www.w3.org/2000/svg" width="24" height="24" fill="none"><g clip-path="url(#a)"><g><path fill="#121212" d="M7 2V22H3V2H7ZM9 2H19.005C20.107 2 21 2.898 21 3.99V20.01C21 21.109 20.107 22 19.005 22H9V2ZM22 6H24V10H22V6ZM22 12H24V16H22V12ZM15 12C15.5304 12 16.0391 11.7893 16.4142 11.4142C16.7893 11.0391 17 10.5304 17 10C17 9.46957 16.7893 8.96086 16.4142 8.58579C16.0391 8.21071 15.5304 8 15 8C14.4696 8 13.9609 8.21071 13.5858 8.58579C13.2107 8.96086 13 9.46957 13 10C13 10.5304 13.2107 11.0391 13.5858 11.4142C13.9609 11.7893 14.4696 12 15 12ZM12 16H18C18 15.2044 17.6839 14.4413 17.1213 13.8787C16.5587 13.3161 15.7956 13 15 13C14.2044 13 13.4413 13.3161 12.8787 13.8787C12.3161 14.4413 12 15.2044 12 16Z"/></g></g><defs><clipPath id="a"><rect width="24" height="24" fill="white"/></clipPath></defs></svg>

<svg width="24" height="24" fill="none" xmlns="http://www.w3.org/2000/svg"><g clip-path="url(#a)"><path d="M7 2v20H3V2h4Zm2 0h10.005C20.107 2 21 2.898 21 3.99v16.02c0 1.099-.893 1.99-1.995 1.99H9V2Zm13 4h2v4h-2V6Zm0 6h2v4h-2v-4Zm-7 0a2 2 0 1 0 0-4 2 2 0 0 0 0 4Zm-3 4h6a3 3 0 0 0-6 0Z" /></g><defs><clipPath id="a"><path fill="#fff" d="M0 0h24v24H0z"/></clipPath></defs></svg>
